svgs/thin/map-location-dot.svg

<svg xmlns="http://www.w3.org/2000/svg" viewBox="0 0 576 512"><!--! Font Awesome Pro 6.0.0-alpha3 by @fontawesome - https://fontawesome.com License - https://fontawesome.com/license (Commercial License) --><path d="M288 176c26.48 0 48-21.52 48-48S314.5 80 288 80C261.5 80 240 101.5 240 128S261.5 176 288 176zM288 96c17.64 0 32 14.36 32 32s-14.36 32-32 32S256 145.6 256 128S270.4 96 288 96zM269.1 326.1C273.4 332.3 280.4 336 288 336s14.62-3.703 18.91-9.906c16.12-23.38 29.91-43.03 41.72-59.81C403.1 188.7 416 170.3 416 128c0-70.58-57.41-128-128-128S160 57.42 160 128c0 42.3 12.94 60.73 67.38 138.3C239.2 283.1 252.1 302.7 269.1 326.1zM288 16c61.75 0 112 50.25 112 112c0 37.25-9.844 51.27-64.5 129.1C323.7 273.9 309.9 293.6 293.7 317c-2.625 3.812-8.812 3.812-11.44 0c-16.16-23.42-30-43.11-41.78-59.91C185.8 179.3 176 165.3 176 128C176 66.25 226.3 16 288 16zM572.6 161.4c-2.125-1.5-4.875-1.875-7.344-.9375l-152 56c-4.125 1.516-6.25 6.125-4.719 10.27s6 6.312 10.28 4.734L560 179.5v255l-152 57.91V328c0-4.422-3.594-8-8-8s-8 3.578-8 8v165.4l-208-59.43V328C184 323.6 180.4 320 176 320s-8 3.578-8 8v106.5L16 492.4V229.5l122.8-46.06C142.9 181.9 145 177.3 143.5 173.2C141.9 169 137.3 166.9 133.2 168.5l-128 48C2.063 217.7 0 220.7 0 224v280c0 2.625 1.281 5.094 3.469 6.594C4.813 511.5 6.406 512 8 512c.9687 0 1.938-.1719 2.844-.5313l165.5-63.05l221.4 63.27c1.625 .4531 3.438 .4062 5.031-.2187l168-64C573.9 446.3 576 443.3 576 440v-272C576 165.4 574.7 162.9 572.6 161.4z"/></svg>

<svg xmlns="http://www.w3.org/2000/svg" viewBox="0 0 576 512"><!-- Font Awesome Pro 6.0.0-alpha2 by @fontawesome - https://fontawesome.com License - https://fontawesome.com/license (Commercial License) --><path d="M288 176C314.477 176 336 154.477 336 128S314.477 80 288 80C261.525 80 240 101.523 240 128S261.525 176 288 176ZM288 96C305.645 96 320 110.355 320 128S305.645 160 288 160S256 145.645 256 128S270.355 96 288 96ZM269.094 326.094C273.375 332.297 280.438 336 288 336S302.625 332.297 306.906 326.094C323.031 302.719 336.812 283.062 348.625 266.281C403.062 188.734 416 170.297 416 128C416 57.422 358.594 0 288 0S160 57.422 160 128C160 170.297 172.938 188.734 227.375 266.281C239.188 283.062 252.969 302.719 269.094 326.094ZM288 16C349.75 16 400 66.25 400 128C400 165.25 390.156 179.266 335.5 257.094C323.719 273.891 309.875 293.578 293.719 317C291.094 320.812 284.906 320.812 282.281 317C266.125 293.578 252.281 273.891 240.5 257.094C185.844 179.266 176 165.25 176 128C176 66.25 226.25 16 288 16ZM572.562 161.438C570.438 159.938 567.687 159.562 565.219 160.5L413.219 216.5C409.094 218.016 406.969 222.625 408.5 226.766S414.5 233.078 418.781 231.5L560 179.469V434.484L408 492.391V328C408 323.578 404.406 320 400 320S392 323.578 392 328V493.398L184 433.973V328C184 323.578 180.406 320 176 320S168 323.578 168 328V434.496L16 492.391V229.547L138.812 183.484C142.938 181.938 145.031 177.328 143.5 173.188C141.938 169.047 137.312 166.922 133.188 168.516L5.188 216.516C2.062 217.688 0 220.672 0 224V504C0 506.625 1.281 509.094 3.469 510.594C4.812 511.516 6.406 512 8 512C8.969 512 9.938 511.828 10.844 511.469L176.375 448.422L397.813 511.688C399.438 512.141 401.25 512.094 402.844 511.469L570.844 447.469C573.938 446.297 576 443.312 576 440V168C576 165.391 574.719 162.938 572.562 161.438Z"/></svg>
